X: 36315
T: Seamus O'Shanahan's
R: jig
M: 6/8
K: Bminor
|:F2B Bcd|cAA Ace|fed cde|~d3 cAG|
FBF Bcd|cAA Ace|fed cde|1 dBB BAG:|2 dBB Bcd||
|:egg gag|fdB Bcd|cee edc|dff fdB|
[1 egg gag|fdB Bcd|cde dcA|ABB Bcd:|
[2 ega bag|fdB Bcd|cde dcA|B/c/dB cAG||

